X:1
T:Miss Murray of Auchtertyre’s Strathspey
M:C
L:1/8
R:Strathspey
B:Manson – Hamilton’s Universal Tune Book vol. 1 (1853, p. 180)
Z:AK/Fiddler’s Companion
K:G
d|B/c/d g>d e>dg<d|B/c/d g>d e>de<g|B/c/d g>d (e/f/g/a/) b>a|{a}g>e {e}dB G2G:|
B/c/|d<Ge<G d<Gg<e|dG {e}dc/B/  {B}A2 AB/c/|d<Gd>B g<ba<b|{a}g>e{e}d>B (A2 G)B/c/|d>Ge<G d>Gg>e|
dG {e}dc/B/ {B}A2 AB/c/|d<Gd>B g<ba<b|{a}ge{e}dB G2 G||

